orbsvg.svg

<?xml version="1.0" encoding="UTF-8"?>
<svg height="0INVALID" version="1.1" viewBox="0 0 100 100" xmlns="http://www.w3.org/2000/svg">
<path d="m37.628 2.11c-12.796 3.005-26.082 14.325-32.388 27.595-3.374 7.099-3.738 8.706-4.084 17.998-0.308 8.278 0.017 11.508 1.722 17.12 2.447 8.057 8.502 17.607 14.444 22.784 6.245 5.44 17.468 10.456 26.215 11.716 32.516 4.685 61.325-24.91 55.574-57.09-3.323-18.596-16.495-33.874-33.816-39.224-7-2.162-20.43-2.598-27.667-0.899m0.372 6.772c-8.064 2.603-11.749 4.771-17.833 10.493-5.798 5.452-12.224 16.924-12.099 21.597 0.061 2.309 0.142 2.355 0.928 0.528 0.474-1.1 1.13-3.249 1.458-4.775 0.328-1.527 2.239-4.593 4.246-6.814 3.179-3.519 3.771-3.821 4.597-2.344 0.654 1.168 0.445 2.751-0.674 5.098-2.295 4.812-2.065 9.006 0.627 11.444 10.291 9.318 18.932 12.891 31.174 12.891 8.827 0 15.517-1.89 22-6.215 2.709-1.807 5.705-3.712 6.66-4.233 1.687-0.922 4.916-6.593 4.916-8.634 0-0.558-0.839-2.752-1.865-4.875-1.966-4.069-1.397-6.741 1.221-5.736 2.241 0.859 6.71 8.325 7.352 12.28 0.301 1.856 0.903 3.154 1.337 2.885 2.027-1.253-3.236-13.444-8.729-20.217-10.092-12.446-29.991-18.318-45.316-13.373m8.569 4.444c-4.099 2.997 1.784 8.161 6.452 5.663 2.527-1.353 2.552-4.612 0.045-5.954-2.583-1.382-4.316-1.304-6.497 0.291m-36.266 42.326c-0.92 2.399 0.519 10.079 2.684 14.323 2.849 5.585 7.923 11.089 11.659 12.65 2.8 1.17 3.87 1.078 9.016-0.78 8.157-2.945 24.396-3.02 32.619-0.151 3.18 1.109 6.896 1.804 8.258 1.543 3.561-0.68 11.954-10.3 13.855-15.88 1.648-4.837 2.196-13.371 0.856-13.339-0.412 0.01-2.707 1.344-5.098 2.965-9.817 6.653-13.762 7.517-34.322 7.517h-18.67l-10.149-5.154c-8.024-4.075-10.265-4.848-10.708-3.694m34.947 29.328c-4.692 1.993-0.721 7.42 5.429 7.42 4.551 0 8.307-3.843 6.005-6.145-1.783-1.782-8.48-2.529-11.434-1.275" fill-rule="evenodd"/>
</svg>

<svg xmlns="http://www.w3.org/2000/svg" width="100%" height="auto" viewBox="0 0 100 100" version="1.1">
	<path d="M 37.628 2.110 C 24.832 5.115, 11.546 16.435, 5.240 29.705 C 1.866 36.804, 1.502 38.411, 1.156 47.703 C 0.848 55.981, 1.173 59.211, 2.878 64.823 C 5.325 72.880, 11.380 82.430, 17.322 87.607 C 23.567 93.047, 34.790 98.063, 43.537 99.323 C 76.053 104.008, 104.862 74.413, 99.111 42.233 C 95.788 23.637, 82.616 8.359, 65.295 3.009 C 58.295 0.847, 44.865 0.411, 37.628 2.110 M 38 8.882 C 29.936 11.485, 26.251 13.653, 20.167 19.375 C 14.369 24.827, 7.943 36.299, 8.068 40.972 C 8.129 43.281, 8.210 43.327, 8.996 41.500 C 9.470 40.400, 10.126 38.251, 10.454 36.725 C 10.782 35.198, 12.693 32.132, 14.700 29.911 C 17.879 26.392, 18.471 26.090, 19.297 27.567 C 19.951 28.735, 19.742 30.318, 18.623 32.665 C 16.328 37.477, 16.558 41.671, 19.250 44.109 C 29.541 53.427, 38.182 57, 50.424 57 C 59.251 57, 65.941 55.110, 72.424 50.785 C 75.133 48.978, 78.129 47.073, 79.084 46.552 C 80.771 45.630, 84 39.959, 84 37.918 C 84 37.360, 83.161 35.166, 82.135 33.043 C 80.169 28.974, 80.738 26.302, 83.356 27.307 C 85.597 28.166, 90.066 35.632, 90.708 39.587 C 91.009 41.443, 91.611 42.741, 92.045 42.472 C 94.072 41.219, 88.809 29.028, 83.316 22.255 C 73.224 9.809, 53.325 3.937, 38 8.882 M 46.569 13.326 C 42.470 16.323, 48.353 21.487, 53.021 18.989 C 55.548 17.636, 55.573 14.377, 53.066 13.035 C 50.483 11.653, 48.750 11.731, 46.569 13.326 M 10.303 55.652 C 9.383 58.051, 10.822 65.731, 12.987 69.975 C 15.836 75.560, 20.910 81.064, 24.646 82.625 C 27.446 83.795, 28.516 83.703, 33.662 81.845 C 41.819 78.900, 58.058 78.825, 66.281 81.694 C 69.461 82.803, 73.177 83.498, 74.539 83.237 C 78.100 82.557, 86.493 72.937, 88.394 67.357 C 90.042 62.520, 90.590 53.986, 89.250 54.018 C 88.838 54.028, 86.543 55.362, 84.152 56.983 C 74.335 63.636, 70.390 64.500, 49.830 64.500 L 31.160 64.500 21.011 59.346 C 12.987 55.271, 10.746 54.498, 10.303 55.652 M 45.250 84.980 C 40.558 86.973, 44.529 92.400, 50.679 92.400 C 55.230 92.400, 58.986 88.557, 56.684 86.255 C 54.901 84.473, 48.204 83.726, 45.250 84.980" stroke="none" fill="black" fill-rule="evenodd"/>
</svg>
